semcore/icon/svg/color/Mailchimp/l.svg

<svg width="24" height="24" viewBox="0 0 24 24" fill="none" xmlns="http://www.w3.org/2000/svg">
<g clip-path="url(#clip0_323_397)">
<path d="M17.4821 11.395C17.6327 11.3771 17.7867 11.3771 17.9366 11.395C18.0191 11.2087 18.0335 10.8828 17.9579 10.5322C17.8506 10.0097 17.7035 9.6907 17.3955 9.74088C17.0909 9.79107 17.0806 10.1706 17.1879 10.6931C17.2525 10.9866 17.3597 11.241 17.4814 11.395H17.4821ZM14.8607 11.8103C15.0793 11.9072 15.2113 11.9711 15.2656 11.9141C15.2979 11.8783 15.2904 11.8137 15.2367 11.7278C15.1295 11.5524 14.9074 11.373 14.6709 11.2733C14.1766 11.0657 13.6074 11.1338 13.1742 11.4521C13.0271 11.5593 12.8917 11.7099 12.9096 11.7993C12.9164 11.8281 12.9384 11.8494 12.9886 11.8563C13.1103 11.8708 13.529 11.6597 14.0164 11.6274C14.3567 11.6061 14.6427 11.7133 14.8614 11.8103H14.8607ZM14.4207 12.0612C14.134 12.1079 13.98 12.2008 13.8803 12.2867C13.7909 12.3616 13.7407 12.4476 13.7407 12.5053L13.7621 12.5589L13.8088 12.5768C13.8734 12.5768 14.0164 12.5156 14.0164 12.5156C14.31 12.4084 14.6249 12.3726 14.9329 12.4228C15.0759 12.4373 15.1439 12.4476 15.1763 12.3981C15.1831 12.3836 15.1941 12.3548 15.1652 12.3087C15.1006 12.198 14.8105 12.0144 14.4207 12.0612ZM16.598 12.9845C16.7912 13.0773 17.0029 13.0416 17.071 12.902C17.1425 12.759 17.0421 12.5651 16.8489 12.4723C16.6557 12.3754 16.444 12.4153 16.3725 12.5548C16.3044 12.6978 16.4048 12.8876 16.598 12.9845ZM17.8403 11.8962C17.6829 11.8928 17.5502 12.0646 17.5502 12.2826C17.5467 12.4978 17.6684 12.6731 17.8259 12.6765C17.9833 12.6799 18.1126 12.5081 18.116 12.2936C18.1194 12.0784 17.9943 11.8996 17.8403 11.8962ZM7.29475 15.7847C7.25556 15.7379 7.19094 15.7524 7.12975 15.7668C7.07956 15.7778 7.02937 15.7847 6.98262 15.7881C6.87537 15.7881 6.775 15.7379 6.71381 15.652C6.64231 15.5413 6.64575 15.3763 6.72481 15.19L6.76056 15.1041C6.88981 14.8215 7.09744 14.3485 6.86094 13.8975C6.68562 13.5572 6.3955 13.3461 6.04419 13.3028C5.70731 13.2595 5.37456 13.3778 5.1415 13.6253C4.79431 14.0082 4.74069 14.5314 4.80875 14.7177C4.8335 14.7858 4.87337 14.8036 4.90156 14.8071C4.95862 14.8139 5.04456 14.7713 5.10231 14.6242L5.11675 14.5774C5.1415 14.4984 5.18825 14.3519 5.25975 14.2371C5.45294 13.9436 5.84344 13.8611 6.13356 14.0543C6.37694 14.2117 6.47387 14.5128 6.37006 14.7954C6.31644 14.9459 6.22706 15.2251 6.24837 15.4581C6.28756 15.927 6.57425 16.1133 6.83206 16.1346C7.083 16.1456 7.25831 16.0019 7.30506 15.8981C7.32981 15.8369 7.3085 15.8012 7.29406 15.7833L7.29475 15.7847ZM21.8003 14.9288C21.7893 14.893 21.7288 14.6641 21.6429 14.3918L21.4676 13.9229C21.8113 13.4073 21.8182 12.9453 21.7721 12.6841C21.7219 12.3616 21.5892 12.0859 21.3177 11.8034C21.0489 11.5167 20.4941 11.2231 19.7137 11.0052L19.3054 10.8945C19.3054 10.8766 19.2841 9.92788 19.2662 9.52295C19.2552 9.22938 19.2304 8.76738 19.0874 8.31638C18.919 7.70382 18.622 7.16688 18.2528 6.82313C19.2696 5.76713 19.9069 4.6032 19.9035 3.6077C19.9001 1.68476 17.5474 1.10451 14.6469 2.30763L14.0309 2.56888C13.6548 2.20038 13.2822 1.8312 12.9027 1.4627C9.59375 -1.42687 -0.746938 10.0853 2.55787 12.8855L3.28112 13.4981C3.08794 14.0206 3.01987 14.5829 3.08037 15.1419C3.15944 15.9119 3.55337 16.6496 4.19756 17.2188C4.806 17.7592 5.60831 18.1029 6.38931 18.1029C7.67494 21.0716 10.6147 22.8941 14.0591 22.9979C17.7578 23.1052 20.8626 21.3686 22.1619 18.2466C22.2479 18.028 22.6095 17.0401 22.6095 16.1697C22.6095 15.2924 22.1152 14.9308 21.8003 14.9308V14.9288ZM6.67187 17.2635C6.56119 17.2848 6.44294 17.2924 6.32812 17.2883C5.21437 17.2594 4.00781 16.2536 3.88612 15.0573C3.75344 13.7359 4.4265 12.7226 5.61931 12.4826C5.78431 12.4469 5.95206 12.4359 6.1205 12.4434C6.79012 12.4826 7.77462 12.9948 7.99669 14.4523C8.19744 15.7448 7.88187 17.0593 6.67187 17.2669V17.2635ZM5.42612 11.692C4.685 11.835 4.02981 12.2578 3.62831 12.8381C3.38837 12.6414 2.94425 12.2544 2.86587 12.1038C2.22856 10.8863 3.56437 8.52676 4.49525 7.19095C6.80112 3.89645 10.4139 1.40082 12.0866 1.85182C12.3589 1.93088 13.2574 2.97588 13.2574 2.97588C13.2574 2.97588 11.5854 3.90332 10.0344 5.19926C7.94719 6.81076 6.37144 9.14895 5.42612 11.6913V11.692ZM17.1452 16.7733C17.17 16.7623 17.1886 16.7341 17.1844 16.7087C17.181 16.6729 17.1521 16.6475 17.1164 16.6516C17.1164 16.6516 15.3687 16.9129 13.7146 16.3044C13.8934 15.7208 14.3732 15.9318 15.0965 15.9896C16.2206 16.0576 17.3487 15.9359 18.4336 15.6279C19.1823 15.4128 20.1634 14.9906 20.9292 14.3856C21.1871 14.9514 21.2764 15.5743 21.2764 15.5743C21.2764 15.5743 21.4772 15.5386 21.6415 15.6424C21.7989 15.7393 21.9137 15.9435 21.8347 16.4626C21.6772 17.4368 21.262 18.2281 20.5669 18.9582C20.1338 19.4271 19.6182 19.8141 19.0414 20.0967C18.7224 20.2651 18.3896 20.4047 18.0493 20.5195C15.4279 21.3754 12.7459 20.4336 11.8797 18.4103C11.8116 18.2563 11.7546 18.0954 11.7078 17.9304C11.3393 16.598 11.6507 14.9975 12.6318 13.9917C12.6889 13.9271 12.7501 13.8521 12.7501 13.7552C12.7501 13.6761 12.6999 13.5943 12.6572 13.5331C12.3169 13.0354 11.1317 12.1904 11.3682 10.5501C11.5401 9.3717 12.5679 8.54463 13.5276 8.59138L13.771 8.60582C14.1862 8.63057 14.5479 8.68488 14.8882 8.69863C15.4609 8.72338 15.9765 8.64157 16.5856 8.13282C16.7898 7.96095 16.9541 7.81038 17.2339 7.76432C17.2628 7.76088 17.3377 7.73201 17.4807 7.73957C17.6313 7.74645 17.7743 7.7932 17.8994 7.8757C18.3903 8.20157 18.4584 8.98945 18.4831 9.56557C18.4976 9.89488 18.5367 10.6896 18.5512 10.9193C18.5835 11.4418 18.7196 11.5174 18.9953 11.6068C19.1527 11.6604 19.2999 11.6996 19.5109 11.7573C20.1592 11.9402 20.5422 12.1258 20.7821 12.3623C20.9292 12.5094 20.9932 12.6669 21.0152 12.8168C21.0942 13.3757 20.5855 14.0632 19.2394 14.6895C17.7674 15.3736 15.9847 15.5454 14.7527 15.4093L14.3196 15.3591C13.3351 15.2264 12.7727 16.5011 13.3633 17.379C13.7428 17.9414 14.7851 18.3099 15.8232 18.3099C18.2047 18.3099 20.0376 17.2896 20.7182 16.4083L20.7718 16.3292C20.8076 16.279 20.7787 16.2543 20.7361 16.2824C20.1812 16.6619 17.7069 18.1765 15.0642 17.7221C15.0642 17.7221 14.7417 17.6684 14.4482 17.5536C14.2151 17.4643 13.7284 17.2388 13.6679 16.7369C15.8019 17.3996 17.1446 16.7726 17.1446 16.7726L17.1452 16.7733ZM9.68312 7.17651C10.5033 6.22776 11.5126 5.40413 12.4152 4.94213C12.4476 4.92426 12.4799 4.96001 12.4654 4.98888C12.3939 5.11813 12.2544 5.4007 12.2111 5.60832C12.2042 5.64063 12.2399 5.66538 12.2647 5.64751C12.8305 5.26457 13.8081 4.85276 14.6675 4.79913C14.7032 4.79913 14.7211 4.84588 14.6922 4.8672C14.5492 4.97788 14.4234 5.1037 14.3127 5.2467C14.2949 5.27145 14.3127 5.30376 14.3416 5.30376C14.9466 5.31063 15.7957 5.52238 16.3471 5.83382C16.3862 5.85513 16.3615 5.92663 16.3182 5.91632C15.4801 5.72313 14.1086 5.57601 12.6841 5.92732C11.4129 6.23876 10.4428 6.7152 9.73331 7.23426C9.69756 7.25901 9.65425 7.21226 9.68312 7.17651Z" fill="black"/>
</g>
<defs>
<clipPath id="clip0_323_397">
<rect width="22" height="22" fill="white" transform="translate(1 1)"/>
</clipPath>
</defs>
</svg>

<svg xmlns="http://www.w3.org/2000/svg" width="24" height="24" fill="none" viewBox="0 0 24 24">
  <g>
    <path fill="#000" d="M17.482 11.405a1.93 1.93 0 0 1 .455 0c.082-.187.096-.513.02-.863-.106-.523-.254-.842-.562-.792-.304.05-.314.43-.207.953.065.293.172.548.294.702Zm-2.621.415c.218.097.35.16.405.104.032-.036.024-.1-.03-.187-.107-.175-.329-.354-.565-.454a1.53 1.53 0 0 0-1.497.179c-.147.107-.282.258-.264.347.006.029.028.05.079.057.121.014.54-.197 1.027-.229.34-.021.626.086.845.183Zm-.44.25c-.287.047-.441.14-.54.226-.09.075-.14.161-.14.219l.021.053.047.018a.82.82 0 0 0 .207-.06 1.82 1.82 0 0 1 .917-.094c.143.015.21.025.243-.024.007-.015.018-.044-.01-.09-.065-.11-.356-.294-.745-.247Zm2.177.924c.193.093.405.057.473-.082.071-.143-.029-.337-.222-.43-.193-.097-.405-.057-.477.082-.068.143.033.333.226.43Zm1.242-1.088c-.157-.004-.29.168-.29.386-.003.215.118.39.276.394.157.004.287-.168.29-.383.003-.215-.122-.394-.276-.397ZM7.295 15.794c-.04-.046-.104-.032-.165-.018-.05.011-.1.018-.147.022a.329.329 0 0 1-.27-.136c-.07-.111-.067-.276.012-.462l.036-.086c.129-.283.336-.756.1-1.207-.175-.34-.466-.551-.817-.595a1.05 1.05 0 0 0-.903.323c-.347.383-.4.906-.332 1.092.024.068.064.086.093.09.057.006.143-.036.2-.183l.015-.047c.024-.079.071-.226.143-.34a.628.628 0 0 1 .874-.183c.243.157.34.458.236.741-.054.15-.143.43-.122.663.04.469.326.655.584.676.251.011.426-.132.473-.236.025-.061.003-.097-.01-.115v.001Zm14.505-.856c-.01-.035-.071-.264-.157-.537l-.175-.469c.343-.515.35-.977.304-1.238-.05-.323-.183-.599-.454-.881-.27-.287-.824-.58-1.604-.798l-.409-.11c0-.019-.02-.968-.039-1.372-.01-.294-.036-.756-.179-1.207-.168-.613-.465-1.15-.834-1.493 1.017-1.056 1.654-2.22 1.65-3.216-.003-1.923-2.356-2.503-5.256-1.3l-.616.261c-.376-.368-.749-.737-1.128-1.106-3.31-2.89-13.65 8.623-10.345 11.423l.723.613a3.615 3.615 0 0 0-.2 1.644c.078.77.472 1.507 1.117 2.076.608.54 1.41.884 2.191.884 1.286 2.97 4.226 4.792 7.67 4.896 3.699.107 6.804-1.63 8.103-4.752.086-.218.448-1.206.448-2.077 0-.877-.495-1.239-.81-1.239v-.002ZM6.672 17.273c-.11.021-.23.029-.344.025-1.114-.029-2.32-1.035-2.442-2.231-.133-1.322.54-2.335 1.733-2.575.165-.036.333-.047.501-.039.67.04 1.655.551 1.877 2.009.2 1.292-.115 2.607-1.325 2.814v-.003Zm-1.246-5.571c-.741.143-1.396.565-1.798 1.146-.24-.197-.684-.584-.762-.735-.637-1.217.698-3.577 1.63-4.912 2.305-3.295 5.918-5.79 7.59-5.34.273.08 1.171 1.124 1.171 1.124s-1.672.928-3.223 2.224c-2.087 1.611-3.663 3.95-4.608 6.493Zm11.72 5.08c.024-.01.043-.038.038-.064-.003-.035-.032-.06-.068-.057 0 0-1.747.261-3.401-.347.178-.584.658-.373 1.382-.315a10.006 10.006 0 0 0 3.337-.362c.748-.215 1.73-.637 2.495-1.242.258.566.347 1.189.347 1.189s.201-.036.366.068c.157.097.272.301.193.82-.158.974-.573 1.766-1.268 2.496a5.178 5.178 0 0 1-1.526 1.138 6.734 6.734 0 0 1-.992.423c-2.621.856-5.303-.086-6.17-2.11a3.648 3.648 0 0 1-.171-.479c-.369-1.332-.057-2.933.924-3.939.057-.064.118-.14.118-.236 0-.08-.05-.161-.093-.222-.34-.498-1.525-1.343-1.289-2.983.172-1.179 1.2-2.006 2.16-1.959l.243.014c.415.025.777.08 1.117.093.573.025 1.088-.057 1.698-.566.204-.171.368-.322.648-.368.029-.004.104-.032.247-.025.15.007.293.054.418.136.491.326.56 1.114.584 1.69.015.33.054 1.124.068 1.354.033.522.169.598.444.687.158.054.305.093.516.15.648.184 1.031.37 1.271.606a.789.789 0 0 1 .233.454c.08.56-.43 1.247-1.776 1.873-1.472.684-3.254.856-4.486.72l-.433-.05c-.985-.133-1.547 1.142-.957 2.02.38.562 1.422.93 2.46.93 2.382 0 4.215-1.02 4.895-1.901l.054-.08c.036-.05.007-.074-.036-.046-.555.38-3.03 1.894-5.672 1.44 0 0-.322-.054-.616-.169-.233-.09-.72-.315-.78-.816 2.134.662 3.477.036 3.477.036ZM9.682 7.187c.82-.949 1.83-1.772 2.732-2.234.033-.018.065.018.05.046-.071.13-.21.412-.254.62-.007.032.029.057.054.04.566-.384 1.543-.796 2.402-.85.036 0 .054.047.025.069a2.11 2.11 0 0 0-.38.38.036.036 0 0 0 .03.056c.605.007 1.454.219 2.005.53.04.022.014.093-.029.083-.838-.193-2.21-.34-3.634.01-1.271.312-2.241.789-2.95 1.308-.036.025-.08-.022-.05-.058Z"/>
  </g>
  <defs>
      <path fill="#fff" d="M1 1.01h22v22H1z"/>
  </defs>
</svg>
